public/mouth-shapes/mouth-H.svg

<?xml version="1.0" encoding="UTF-8" standalone="no"?>
<svg
   xmlns:dc="http://purl.org/dc/elements/1.1/"
   xmlns:cc="http://creativecommons.org/ns#"
   xmlns:rdf="http://www.w3.org/1999/02/22-rdf-syntax-ns#"
   xmlns:svg="http://www.w3.org/2000/svg"
   xmlns="http://www.w3.org/2000/svg"
   xmlns:sodipodi="http://sodipodi.sourceforge.net/DTD/sodipodi-0.dtd"
   xmlns:inkscape="http://www.inkscape.org/namespaces/inkscape"
   inkscape:version="1.0beta1 (32d4812, 2019-09-19)"
   sodipodi:docname="mouth-H.svg"
   stroke-linejoin="round"
   stroke-linecap="round"
   fill="none"
   stroke="black"
   xml:space="preserve"
   enable-background="new 0 0 1188.854736 1188.854736"
   viewBox="3e-06 1.2e-05 1024 428.97719"
   height="768"
   width="1024"
   y="0px"
   x="0px"
   id="Contours"
   version="1.1">
  <metadata
     id="metadata212">
    <rdf:RDF>
      <cc:Work
         rdf:about="">
        <dc:format>image/svg+xml</dc:format>
        <dc:type
           rdf:resource="http://purl.org/dc/dcmitype/StillImage" />
      </cc:Work>
    </rdf:RDF>
  </metadata>
  <defs
     id="defs210" />
  <sodipodi:namedview
     inkscape:current-layer="Contours"
     inkscape:window-maximized="1"
     inkscape:window-y="23"
     inkscape:window-x="0"
     inkscape:cy="458.30343"
     inkscape:cx="24.656961"
     inkscape:zoom="0.22879162"
     showgrid="false"
     id="namedview208"
     inkscape:window-height="755"
     inkscape:window-width="1280"
     inkscape:pageshadow="2"
     inkscape:pageopacity="0"
     guidetolerance="10"
     gridtolerance="10"
     objecttolerance="10"
     borderopacity="1"
     inkscape:document-rotation="0"
     bordercolor="#666666"
     pagecolor="#ffffff" />
  <g
     transform="matrix(0.50462963,0,0,0.50462963,184.85367,90.406801)"
     id="g287"
     style="opacity:1;stop-opacity:1">
    <path
       inkscape:connector-curvature="0"
       class="selected"
       fill="#000000"
       opacity="1.000000"
       stroke="none"
       d="m 1162.1653,93.048238 c 12.0323,16.071952 18.1818,35.783942 22.2052,55.453662 7.5961,37.13616 7.3737,78.84841 -15.2437,109.26631 -2.3746,3.19356 -6.0464,6.55656 -9.8034,5.2441 -4.0855,-1.42724 -4.5317,-7.01279 -3.772,-11.27327 2.918,-16.36461 12.5113,-31.05876 14.7047,-47.53615 1.0806,-8.11804 0.3156,-16.35534 -0.4505,-24.50908 -2.1514,-22.89472 -4.6531,-46.82424 -17.3046,-66.02673 -1.3097,-1.98791 -3.2892,-4.1489 -5.6174,-3.65229 -4.4578,0.95086 -6.3672,-5.44267 -6.2523,-9.99924 0.1377,-5.459881 0.9461,-12.015087 5.8776,-14.36241 5.664,-2.696013 11.8969,2.373512 15.6564,7.395098 z"
       id="path203" />
    <path
       inkscape:connector-curvature="0"
       class="selected"
       fill="#000000"
       opacity="1.000000"
       stroke="none"
       d="M 32.690966,171.72561 C 120.50739,74.673932 245.93678,12.567497 376.3575,1.558931 c 23.86369,-2.014289 47.95776,-2.380979 71.70283,0.734189 48.61133,6.377429 94.66172,27.163355 143.50419,31.423216 43.84323,3.823849 87.56617,-5.842658 131.18488,-11.695735 93.68977,-12.571973 189.72041,-7.471562 281.5514,14.953851 58.0305,14.171225 120.1369,40.318026 144.5084,94.856008 18.2498,40.83882 10.8245,88.28007 -0.4842,131.55795 -18.8527,72.14783 -48.1459,142.60779 -94.6881,200.87061 -52.7777,66.0686 -126.01328,113.98374 -204.76426,144.78676 -78.75099,30.80303 -163.07437,45.22628 -247.36517,51.97951 -28.55257,2.28758 -57.21583,3.71742 -85.84128,2.685 C 404.52945,659.702 295.13759,617.30319 210.32924,545.36581 194.92071,525.62883 179.51218,505.89184 164.10365,486.15486 124.74451,435.73924 85.127858,384.92266 56.175233,327.8909 32.324557,280.90912 15.851234,226.82244 28.628433,175.70604 16.911219,207.66885 14.397894,242.94695 21.465497,276.24805 12.154023,282.07036 3.075978,268.07085 1.616009,257.1864 -3.948375,215.70244 4.97969,172.41626 26.50435,136.5196 c 5.008473,-8.35263 16.832332,-16.83489 22.927963,-9.2392 -5.580449,14.81507 -11.160898,29.63014 -16.741347,44.44521 M 216.89082,517.39617 c 5.9796,6.00008 14.35198,12.37371 22.07714,8.8983 19.64387,-8.83745 41.67462,-10.35737 63.16986,-11.74899 68.4696,-4.43276 136.93921,-8.86553 205.40881,-13.29829 -24.07436,-1.38335 -48.14873,-2.7667 -72.22309,-4.15005 -16.99211,-0.97639 -38.1104,-5.14774 -42.31463,-21.64046 -1.98529,-7.78804 -9.66209,-12.44915 -15.15647,-18.31488 -14.76431,-15.76212 -13.54391,-40.81988 -6.59425,-61.26814 14.24742,-41.92074 49.45855,-76.12187 91.77608,-89.14355 -123.15411,0.74448 -246.30822,1.48896 -369.462332,2.23344 -11.857507,0.0717 -28.439481,-5.38393 -25.489467,-16.86884 C 407.4389,290.41568 746.75409,280.4081 1085.6196,262.08402 c 16.7199,-0.90412 36.4212,-3.64824 44.158,-18.49794 25.9064,-49.724 10.1214,-117.28311 -35.1359,-150.379886 C 1076.9175,80.244459 1055.9811,72.472132 1035.0435,65.856228 942.78138,36.703033 844.39234,27.101087 748.23449,37.866064 693.90019,43.948849 639.52346,56.460903 585.13553,50.877948 544.66623,46.72375 505.89513,32.679986 465.86942,25.402369 336.18295,1.822313 201.06331,52.162028 98.591607,135.07253 c -20.073846,16.24187 -39.893619,34.79308 -48.3492,59.19105 -11.646096,33.60398 0.665407,70.50015 15.2095,102.95517 36.627603,81.73418 88.214563,156.73658 151.438913,220.17742 m 748.43092,8.82338 c -154.68029,-24.00693 -312.3551,-14.9168 -468.61961,-5.76643 -23.83844,1.39591 -47.67689,2.79181 -71.51533,4.18772 -25.45106,1.49034 -50.9096,2.98125 -76.28483,5.4461 -34.86903,3.38704 -69.55938,8.61294 -103.87876,15.64872 17.76376,20.60201 41.51243,35.14197 65.91591,47.16129 122.2208,60.19674 266.53321,63.01837 399.52685,33.45042 89.45816,-19.88888 175.78326,-53.80431 254.85577,-100.12782 M 804.02304,480.365 c -8.66107,3.5263 -17.32213,7.05261 -25.9832,10.57891 65.51505,3.93452 130.92797,9.56937 196.15073,16.89696 12.35643,1.38821 23.12177,-7.8975 31.74373,-16.85689 58.1435,-60.41921 100.0187,-136.34926 120.0952,-217.76234 -1.8463,-0.7666 -3.9457,-0.28772 -5.8888,0.18221 -73.7666,17.83991 -151.30219,8.45276 -226.62664,17.72633 -17.38088,2.13985 -34.69414,5.27886 -52.20236,5.6482 -17.89233,0.37745 -35.70182,-2.14365 -53.55162,-3.43314 -36.56436,-2.64146 -73.28268,-0.11245 -109.85501,2.4163 14.14069,1.11396 28.057,5.00818 40.72209,11.39532 22.45539,11.32449 47.49769,16.25835 71.30009,24.37835 23.8024,8.12 47.64661,20.51633 60.98352,41.83805 18.45446,29.50314 9.78741,72.75501 -18.60974,92.86977 -8.61784,6.10434 -18.49684,10.13962 -28.27799,14.12197 m 13.61672,-25.62177 c 10.93358,-10.34214 21.80699,-22.10689 24.76181,-36.86398 3.34232,-16.69234 -4.52548,-34.18509 -16.82223,-45.95774 -12.29674,-11.77265 -28.45974,-18.64025 -44.70883,-23.71686 -16.2491,-5.07662 -33.00882,-8.63039 -48.78006,-15.03924 -9.6815,-3.9342 -18.92427,-8.91946 -28.73407,-12.52184 -16.59304,-6.09336 -34.37827,-8.08127 -51.99408,-9.54454 -69.44483,-5.76852 -141.48946,-3.68752 -205.6244,23.56262 -6.81914,2.89736 -13.66091,6.16316 -18.96505,11.33632 -10.23635,9.98356 -13.32688,25.60259 -23.48164,35.66913 -11.30751,11.20927 -14.64948,27.93737 -17.45673,43.60986 -1.16761,6.51863 -1.70673,14.63688 3.79929,18.31649 5.69221,3.80403 13.18123,-0.17668 18.90379,-3.93488 50.6779,-33.28194 109.68641,-53.77079 170.08505,-59.05668 9.5408,-0.83498 19.1679,-1.29613 28.68029,-0.18324 25.43358,2.97556 48.55136,16.97209 73.95829,20.16717 30.65596,3.85518 60.93976,10.66413 90.29558,20.30187 18.75624,6.15782 39.11963,15.3832 46.08299,33.85554 M 578.36783,399.28947 c -57.48537,5.07934 -113.58895,25.07544 -161.32824,57.49964 14.00885,14.54545 33.80433,23.35745 53.98754,24.03265 14.56124,0.48712 29.12248,0.97425 43.68371,1.46137 47.02741,1.57323 94.07366,3.1467 141.12437,2.61484 48.71543,-0.55067 98.46237,-3.5846 143.62274,-21.86128 -5.35225,-13.25405 -19.64402,-20.37742 -33.18895,-24.94372 -37.00252,-12.47437 -76.78931,-14.6143 -114.09605,-26.14698 -15.09735,-4.66706 -29.87551,-10.89001 -45.56309,-12.79029 -9.36319,-1.13418 -18.847,-0.69637 -28.24203,0.13376 M 552.89995,502.1801 c 0.72369,-0.0754 1.56308,-0.27911 1.8451,-0.94984 0.16039,-0.38146 0.0752,-0.85377 -0.20837,-1.15515 -3.67947,-0.46834 -7.45172,-0.19552 -11.02551,0.7974 2.96255,1.18544 6.21506,1.63842 9.38878,1.30759 z"
       id="path205" />
  </g>
</svg>

<?xml version="1.0" encoding="utf-8"?><!DOCTYPE svg PUBLIC "-//W3C//DTD SVG 1.1//EN" "http://www.w3.org/Graphics/SVG/1.1/DTD/svg11.dtd"><svg version="1.1" id="Contours" xmlns="http://www.w3.org/2000/svg" xmlns:xlink="http://www.w3.org/1999/xlink" x="0px" y="0px" width="1188.854736px" height="1188.854736px" viewBox="0.000003 0.000012 1188.854736 664.051514" enable-background="new 0 0 1188.854736 1188.854736" xml:space="preserve" stroke="black" fill="none" stroke-linecap='round' stroke-linejoin='round'><path class="selected"  fill="#000000" opacity="1.000000" stroke="none" 
 	d="
M1162.165274 93.048238 C1174.197625 109.120195 1180.347111 128.832184 1184.370506 148.501896 C1191.966624 185.638060 1191.744193 227.350313 1169.126785 257.768213 C1166.752194 260.961775 1163.080422 264.324771 1159.323431 263.012315 C1155.237865 261.585074 1154.791658 255.999522 1155.551354 251.739037 C1158.469363 235.374429 1168.062730 220.680278 1170.256108 204.202892 C1171.336737 196.084846 1170.571728 187.847548 1169.805554 179.693812 C1167.654228 156.799094 1165.152531 132.869572 1152.501031 113.667077 C1151.191307 111.679173 1149.211755 109.518181 1146.883556 110.014793 C1142.425823 110.965653 1140.516366 104.572119 1140.631281 100.015554 C1140.768980 94.555669 1141.577382 88.000463 1146.508851 85.653140 C1152.172877 82.957127 1158.405838 88.026652 1162.165274 93.048238 z"/><path class="selected"  fill="#000000" opacity="1.000000" stroke="none" 
 	d="
M32.690966 171.725610 C120.507392 74.673932 245.936784 12.567497 376.357505 1.558931 C400.221187 -0.455358 424.315261 -0.822048 448.060332 2.293120 C496.671661 8.670549 542.722052 29.456475 591.564519 33.716336 C635.407747 37.540185 679.130690 27.873678 722.749401 22.020601 C816.439169 9.448628 912.469810 14.549039 1004.300785 36.974452 C1062.331298 51.145677 1124.437669 77.292478 1148.809225 131.830459 C1167.058983 172.669282 1159.633745 220.110530 1148.324990 263.388407 C1129.472345 335.536238 1100.179069 405.996199 1053.636883 464.259022 C1000.859193 530.327623 927.623625 578.242756 848.872639 609.045784 C770.121652 639.848813 685.798266 654.272060 601.507470 661.025291 C572.954904 663.312872 544.291639 664.742711 515.666193 663.710295 C404.529451 659.701998 295.137591 617.303189 210.329243 545.365813 C194.920712 525.628828 179.512180 505.891844 164.103648 486.154860 C124.744512 435.739243 85.127858 384.922661 56.175233 327.890902 C32.324557 280.909118 15.851234 226.822439 28.628433 175.706043 C16.911219 207.668854 14.397894 242.946950 21.465497 276.248052 C12.154023 282.070359 3.075978 268.070850 1.616009 257.186398 C-3.948375 215.702438 4.979690 172.416262 26.504350 136.519599 C31.512823 128.166972 43.336682 119.684713 49.432313 127.280399 C43.851864 142.095471 38.271415 156.910541 32.690966 171.725610 M216.890816 517.396172 C222.870420 523.396252 231.242798 529.769876 238.967963 526.294469 C258.611835 517.457023 280.642576 515.937100 302.137816 514.545485 C370.607422 510.112719 439.077029 505.679953 507.546635 501.247187 C483.472269 499.863839 459.397903 498.480491 435.323537 497.097142 C418.331427 496.120751 397.213135 491.949398 393.008906 475.456685 C391.023624 467.668637 383.346817 463.007534 377.852438 457.141805 C363.088132 441.379679 364.308526 416.321924 371.258189 395.873660 C385.505610 353.952918 420.716741 319.751793 463.034268 306.730106 C339.880159 307.474589 216.726049 308.219071 93.571938 308.963553 C81.714431 309.035233 65.132457 303.579619 68.082471 292.094714 C407.438901 290.415682 746.754088 280.408104 1085.619594 262.084021 C1102.339454 261.179899 1122.040812 258.435776 1129.777580 243.586076 C1155.684010 193.862077 1139.898998 126.302968 1094.641706 93.206194 C1076.917530 80.244459 1055.981141 72.472132 1035.043548 65.856228 C942.781377 36.703033 844.392340 27.101087 748.234489 37.866064 C693.900190 43.948849 639.523461 56.460903 585.135531 50.877948 C544.666234 46.723750 505.895129 32.679986 465.869418 25.402369 C336.182946 1.822313 201.063305 52.162028 98.591607 135.072529 C78.517761 151.314405 58.697988 169.865610 50.242407 194.263582 C38.596311 227.867557 50.907814 264.763732 65.451907 297.218748 C102.079514 378.952931 153.666466 453.955334 216.890816 517.396172 M965.321744 526.219553 C810.641450 502.212624 652.966636 511.302754 496.702127 520.453116 C472.863686 521.849028 449.025245 523.244934 425.186803 524.640839 C399.735740 526.131178 374.277204 527.622088 348.901975 530.086939 C314.032938 533.473982 279.342591 538.699876 245.023214 545.735656 C262.786974 566.337667 286.535642 580.877629 310.939116 592.896947 C433.159922 653.093685 577.472328 655.915319 710.465970 626.347368 C799.924134 606.458488 886.249226 572.543059 965.321744 526.219554 M804.023036 480.364999 C795.361972 483.891303 786.700908 487.417607 778.039843 490.943911 C843.554890 494.878429 908.967814 500.513276 974.190572 507.840867 C986.546998 509.229076 997.312336 499.943366 1005.934272 490.983980 C1064.077829 430.564766 1105.953013 354.634715 1126.029515 273.221641 C1124.183198 272.455041 1122.083838 272.933920 1120.140714 273.403846 C1046.374121 291.243761 968.838514 281.856606 893.514059 291.130185 C876.133177 293.270034 858.819919 296.409042 841.311704 296.778382 C823.419369 297.155826 805.609879 294.634733 787.760080 293.345239 C751.195724 290.703780 714.477399 293.232794 677.905075 295.761542 C692.045763 296.875504 705.962069 300.769723 718.627157 307.156860 C741.082551 318.481351 766.124847 323.415207 789.927249 331.535209 C813.729652 339.655210 837.573857 352.051544 850.910769 373.373261 C869.365228 402.876396 860.698185 446.128275 832.301028 466.243033 C823.683186 472.347369 813.804193 476.382655 804.023036 480.364999 M817.639764 454.743226 C828.573335 444.401091 839.446747 432.636339 842.401568 417.879246 C845.743890 401.186912 837.876087 383.694160 825.579345 371.921510 C813.282603 360.148860 797.119603 353.281262 780.870507 348.204647 C764.621410 343.128033 747.861686 339.574256 732.090451 333.165412 C722.408947 329.231207 713.166184 324.245953 703.356380 320.643565 C686.763337 314.550213 668.978114 312.562304 651.362303 311.099026 C581.917468 305.330509 509.872842 307.411512 445.737899 334.661648 C438.918760 337.559015 432.076986 340.824813 426.772848 345.997966 C416.536499 355.981531 413.445970 371.600556 403.291209 381.667096 C391.983702 392.876369 388.641726 409.604475 385.834481 425.276964 C384.666869 431.795591 384.127751 439.913839 389.633774 443.593448 C395.325978 447.397477 402.815000 443.416769 408.537562 439.658567 C459.215457 406.376627 518.223969 385.887781 578.622608 380.601889 C588.163411 379.766909 597.790507 379.305760 607.302898 380.418648 C632.736477 383.394213 655.854258 397.390739 681.261194 400.585822 C711.917151 404.441003 742.200948 411.249948 771.556766 420.887689 C790.313012 427.045510 810.676396 436.270894 817.639764 454.743226 M578.367833 399.289469 C520.882460 404.368811 464.778879 424.364910 417.039594 456.789107 C431.048436 471.334561 450.843922 480.146557 471.027134 480.821757 C485.588370 481.308882 500.149606 481.796006 514.710842 482.283131 C561.738252 483.856365 608.784501 485.429827 655.835213 484.897972 C704.550639 484.347300 754.297580 481.313370 799.457951 463.036695 C794.105702 449.782643 779.813933 442.659271 766.268997 438.092967 C729.266484 425.618596 689.479692 423.478667 652.172948 411.945989 C637.075600 407.278934 622.297442 401.055976 606.609859 399.155704 C597.246672 398.021522 587.762859 398.459330 578.367833 399.289463 M552.899950 502.180101 C553.623636 502.104664 554.463029 501.900987 554.745051 501.230258 C554.905441 500.848800 554.820243 500.376488 554.536680 500.075114 C550.857213 499.606771 547.084955 499.879592 543.511174 500.872512 C546.473721 502.057946 549.726231 502.510927 552.899950 502.180100 z"/></svg>
